usr/share/icons/biglinux-icons-material-dark/symbolic/status/mic-ready-symbolic.svg

<svg xmlns="http://www.w3.org/2000/svg" viewBox="0 0 22 22">
  <defs id="defs3051">
    <style type="text/css" id="current-color-scheme">
      .ColorScheme-Text {
        color:#232629;
      }
      .ColorScheme-NeutralText {
        color:#f67400;
      }
      </style>
  </defs>
  <path
     style="opacity:1;fill:currentColor;fill-opacity:1;stroke:none"
     d="M 17.000017,3 A 1.9999828,1.9999828 0 0 1 19,5 1.9999828,1.9999828 0 0 1 17.000017,7 1.9999828,1.9999828 0 0 1 15.000034,5 1.9999828,1.9999828 0 0 1 17.000017,3 Z"
     class="ColorScheme-NeutralText" />
  <path
     style="opacity:1;fill:currentColor;fill-opacity:1;stroke:none"
     d="M 7.5,3 C 6.115,3 5,4.115 5,5.5 l 0,6 C 5,12.885 6.115,14 7.5,14 8.885,14 10,12.885 10,11.5 l 0,-6 C 10,4.115 8.885,3 7.5,3 Z M 2,10 2,11 c 9.163e-4,2.235554 1.6341118,4.198898 4,4.808594 L 6,18 l -2,0 0,1 7,0 0,-1 -2,0 0,-2.193359 C 11.365122,15.197142 12.998124,13.23483 13,11 l 0,-1 -1,0 0,1 C 12,13.209139 9.9852814,15 7.5,15 5.0147186,15 3,13.209139 3,11 l 0,-1 z"
     class="ColorScheme-Text" />
</svg>

<svg xmlns="http://www.w3.org/2000/svg" viewBox="0 0 22 22">
<defs id="defs3051">
<style id="current-color-scheme" type="text/css">
.ColorScheme-Contrast{color:#232629}.ColorScheme-NeutralText{color:#f67400}
</style>
</defs>
<path d="M17 3a2 2 0 0 1 2 2 2 2 0 0 1-2 2 2 2 0 0 1-2-2 2 2 0 0 1 2-2" class="ColorScheme-NeutralText" style="opacity:1;fill:currentColor;fill-opacity:1;stroke:none"/>
<path d="M7.5 3A2.495 2.495 0 0 0 5 5.5v6C5 12.885 6.115 14 7.5 14s2.5-1.115 2.5-2.5v-6C10 4.115 8.885 3 7.5 3M2 10v1c0 2.236 1.634 4.199 4 4.809V18H4v1h7v-1H9v-2.193c2.365-.61 3.998-2.572 4-4.807v-1h-1v1c0 2.21-2.015 4-4.5 4S3 13.21 3 11v-1z" class="ColorScheme-Contrast" style="opacity:1;fill:currentColor;fill-opacity:1;stroke:none"/>
</svg>
